X: 1068
T: Hisar Seyir
C: Erol Bingöl
O: Turkey
F: http://compmusic.upf.edu/node/140
N: hisar--seyir--devrihindi--1--erol_bingol
N: makam= hisar
N: form= seyir
N: usul= devrihindi = 7/4
M: 7/4
L: 1/16
K: C _1/4B   
Q: 1/4=60
%%MIDI tuningsystem comma53
^d4 e4 e4 ^g2f2 e2d2 e8  | ^d2e2 f4 e2d2 d2c2 c2=B2 c3B A4  | \
w:   |   | 
^d2e2 f2^g2 a2=b2 c'4 b2a2 b4 a2g2  | 
w:   | 
a2=b2 ^g2f2 f2e2 e3^d c2d2 e8  | d2e2 ^f2g2 a4 =b2a2 g2f2 g3f e4  | 
w:   |   | 
e2a2 g2f2 e2d2 e3d c2_2/4B2 c8  | \
w:   | 
d2e2 ^3/4f2g2 a4 g2=f2 e2d2 e2d2 c2_2/4B2  | 
w:   | 
c2_2/4B2 e2d2 d2c2 c2B2 B2A2 A8  | |


